X:0
T:There was a Lad was Born in Kyle
M:C|
L:1/8
Q:1/2=72
K:D
  D|D2D2 A2D>E|F2E2 E2F>E|D2D2 A2D>E|F2d2 A3
  A|BcdA FGAF |BAGF E2FE |D2d2 ABAG |F3 E D2 ||
A>B|d2d2 defd |edef e2dB |ABde defe |d2A2 B2A2|
    BcdA FGAF |BAGF EGFE |D2d2 ABAG |F3E  D3 |]
